X: 12904
T: Ffoles Llantrisant
R: waltz
M: 3/4
K: Dmajor
|:"D" F2 G2 A2|A6|"D" F2 G2 A2|A6|
"G" B2 A2 G2|"D" F4 E2|"G" D2 E2 D2|"D" F2 D2 D2:|
|:"A" E2 F2 G2|E2 F2 G2|"A" E2 F2 G2|E2 F2 G2|
"D" A2 G2 F2|E4 D2|"G" D2 E2 D2|"D" F2 D2 D2:|

